X:1
T:Sonatina in C major
T:Op. 20 No. 1 - 1
T:F. D. Kahlau (1786-1832)
T:Public Domain
T:Public Domain
T:Public Domain
T:Public Domain
T:Public Domain
T:Public Domain
T:Public Domain
Z:Public Domain
%%score { 1 | 2 }
L:1/8
Q:1/4=132
M:4/4
K:C
V:1 treble nm="Piano"
V:2 treble 
V:1
!p!"^Allegro" (c4 e4 | g4- .g(.g).g.g) |!<(! (g2 c'2!<)!!>(! !>!e'3!>)! .c') | (c'4 .b2) z (b | %4
 !>!d'4 .f2) z f | e4 .g2 z (e |!<(! ^cdf!<)!e!>(! daf!>)!d | cBdB .G2) z2 | %8
 z (G[ce]G [ce]G[ce]G) | z (G[ce]G [ce]G[ce]G) | z (G[df]G [df]G[df]G) | z (G[df]G [df]G[df]G) | %12
 (3z Gc (3_ecG (3ecG (3ecG | (3z Gc (3_ecG (3ecG (3ecG | (3z Ac (3dcA (3dcA (3dcA | %15
 (3z Ac (3dcA (3dcA (3dcA | B2 (b4 ag | ^fe^d.e) e2 =dc | BA^G.A Aced | d4 B2 z2 | %20
 z!mf! (b!>(!d'c' bag!>)!^f | ^deag ^fe=dc | ^ABed ^cd=c=A | %23
!f! !>!G)!<(!(A/B/ c/d/e/^f/ g/a/b/!<)!a/!>(! g/f/e/!>)!d/ | ^c/d/e/d/ =c/B/A/G/ .^F).F.F.F | %25
!f! !>!G!<(!(A/B/ c/d/e/^f/ g/a/b/!<)!a/!>(! g/f/e/!>)!d/ | ^c/d/e/d/ =c/B/A/G/ .^F).F.F.F | %27
 (!>!GA/B/ c/d/e/^f/ g/!<(!B/c/d/ e/=f/g/a/ | b/d/e/^f/ g/a/b/c'/ d'/g/a/b/ c'/d'/e'/!<)!^f'/ | %29
 g'^f'=f'e' d'c'ba |!>(! g^gba =gfe!>)!(d) :| c2 .B2) z2 (B2 | d2 .c2) z2 c2 | e2 .d2 z2 g2 | %34
 f2 .e2 z .G.G.G | c2 .B2 z .B.B.B | d2 .c2 z .c.c.c | ed^cd g3 f | %38
 ._e.[ce].[ce].[ce] .[ce].[ce].[ce].[ce] | .[c_e].[ce].[ce].[ce] .[ce].[ce].[ce].[ce] | %40
 [Bd]4- .[Bd].[Bd].[Bd].[Bd] | [c_e]4- .[ce].[ce].[ce].[ce] | [Bd]4- .[Bd].[Bd].[Bd].[Bd] | %43
 [c_e]4- .[ce].[ce].[ce].[ce] | .[Bd]2 ([c_e]2 .[Bd]2) ([ce]2 | .[Bd]2) (G/A/B/c/ .d2) (B/c/d/e/ | %46
 .f2) (g/a/b/c'/ !>!d'2) (b/c'/d'/e'/ | !>!f'/e'/d'/c'/ b/c'/d'/e'/ !>!f'/e'/d'/c'/ b/c'/d'/e'/ | %48
 !>!f'/e'/d'/c'/ b/c'/d'/c'/ b/a/g/f/ e/d/c/B/) |!p! (c4 e4 | !>!g4- .g.g).g.g | %51
!<(! (g2 c'2!<)!!>(! !>!e'3!>)! .c') | (c'4 .b2) z (b | !>!d'4 .f2) z (f | e4 .g2) z (e | %55
!<(! ^cdf!<)!e!>(! dae!>)!d | cBdB .G2) z2 | z (G[ce]G [ce]G[ce]G) | z (G[ce]G [ce]G[ce]G) | %59
 z (G[df]G [df]G[df]G) | z (G[df]G [df]G[df]G) |!p! (3z Gc (3_ecG (3ecG (3ecG | %62
 (3z Gc (3_ecG (3ecG (3ecG | (3z Gd (3fdG (3fdG (3fdG | (3z Gd (3fdG (3fdG (3fdG | %65
!p! e2 (e'4 d'c' | ba^g.a a2 gf | ed^cd) (dfag) | (g4 .e2) z2 | z!mf! (e'!>(!g'f' e'd'c'!>)!b | %70
 ^gad'c' ba=gf | ^deag ^fg=f=d) |!f! (!>!c!<(!d/e/ f/g/a/b/ c'/d'/e'/!<)!d'/!>(! c'/b/a/!>)!g/ | %73
 ^f/g/a/g/ =f/e/d/c/ .B).B.B.B | (!>!cd/e/ f/g/a/b/ c'/d'/e'/d'/ c'/b/a/g/ | %75
 ^f/g/a/g/ =f/e/d/c/ .B).B.B.B | !>!cd/e/ f/g/a/b/!<(! !>!c'/e/f/g/ a/b/c'/d'/!<)! | %77
!8va(! !>!e'/g/a/b/ c'/d'/e'/f'/ !>!g'/c'/d'/e'/ f'/g'/a'/b'/!8va)! | .c'2 z2 .[EGc]2!ff! z2 | %79
[K:bass] .[E,G,C]2 z2 z4 |] %80
V:2
 (CGEG CGEG) | (CGEG CGEG) | (CGEG CGEG) | (DGFG DGFG) | (B,GDG B,GDG) | (CGEG CGEG) | ([FA]8 | %7
 .G2) z2 z[K:bass] (G,,A,,B,, |!p! C,4 E,4 | !>!G,8 | B,,4 D,4 | !>!G,8) | %12
!f! !>![C,,C,]4 [_E,,_E,]4 | [G,,G,]8 | !>![^F,,^F,]4 [A,,A,]4 | ([D,D]8 |!pp! G,)(DB,D G,DB,D) | %17
 (G,ECE G,ECE) | (^F,DCD F,DCD) | (G,DB,D G,DB,D) |!p! G,8 | C8 | D4 D,4 | .G,2 z2 z4 | %24
 z4 z .[D,A,C].[D,A,C].[D,A,C] | .[G,B,]2 z2 z4 | z4 z .[D,A,C].[D,A,C].[D,A,C] | .[G,B,]2 z2 z4 | %28
 .[E,G,B,]2 z2 .[E,G,B,]2 z2 | .[E,G,B,]2 z2 z4 | z8 :| (G,FDF G,FDF) | (G,ECE G,ECE) | %33
 (G,DB,D G,DB,D) | (G,DB,D G,DB,D) | (G,ECE G,ECE) | (G,FDF G,FDF) | (G,DB,D G,DB,D) | %38
 !>![_A,C]4 !>![_A,,A,]4 | !>![G,,G,]4 !>![^F,,^F,]4 | G,,A,,/B,,/ C,/D,/E,/^F,/ .G,2 z2 | %41
 C,D,/_E,/ F,/G,/A,/B,/ .C2 z2 | G,A,/B,/ C/D/E/^F/ .G2 z2 | C,D,/_E,/ F,/G,/A,/B,/ .C2 z2 | %44
 G,2 C,/D,/_E,/F,/ .G,2 C,/D,/E,/F,/ | .G,2 z2 .[G,B,D]2 z2 | !>!.[G,B,D]2 z2 !>!.[G,B,D]2 z2 | %47
 [G,B,D]8- | [G,B,D]2 z2 z4 |[K:treble]!pp! (CGEG CGEG) | (CGEG CGEG) | (CGEG CGEG) | (DGFG DGFG) | %53
 (B,GDG B,GDG) | (CGEG CGEG) | ([FA]8 | .G2) z2 z[K:bass] (G,,A,,B,, |!p! C,4 E,4 | !>!G,8 | %59
 B,,4 D,4 | !>!G,8) |!mf! !>![C,,C,]4 [_E,,_E,]4 | [G,,G,]8 | !>![B,,,B,,]4 [D,,D,]4 | [G,,G,]8 | %65
[K:treble]!pp! (CGEG CGEG) | (CAFA CAFA) | (B,GFG B,GFG) | (CGEG CGEG) | (C8 | F8 | %71
 G4[K:bass] G,4 | .C2) z2 z4 | z4 z .[G,DF].[G,DF].[G,DF] | .[CE]2 z2 z4 | %75
 z4 z .[G,DF].[G,DF].[G,DF] | .[CE]2 z2 z4 |[K:treble] !>!.[CEG]2 z2 !>!.[CEG]2 z2 | %78
 .[CEG]2 z2[K:bass] .[C,C]2 z2 | .[C,,C,]2 z2 z4 |] %80

